img/icones/horario.svg

<svg width="20" height="20" viewBox="0 0 20 20" fill="none" xmlns="http://www.w3.org/2000/svg">
<path d="M9.99999 1.66699C5.41699 1.66699 1.66699 5.41699 1.66699 9.99999C1.66699 14.583 5.41699 18.333 9.99999 18.333C14.583 18.333 18.333 14.583 18.333 9.99999C18.333 5.41699 14.583 1.66699 9.99999 1.66699ZM12.958 13.167L9.55799 11.075C9.43558 11.0019 9.33432 10.8981 9.26418 10.774C9.19404 10.6498 9.15744 10.5096 9.15799 10.367V6.45799C9.16238 6.29206 9.23086 6.13428 9.34906 6.01775C9.46727 5.90122 9.62602 5.835 9.79199 5.83299C9.95735 5.8343 10.1156 5.90057 10.2325 6.0175C10.3494 6.13442 10.4157 6.29264 10.417 6.45799V10.166L13.617 12.091C13.917 12.275 14.017 12.666 13.833 12.967C13.7425 13.1084 13.6001 13.2087 13.4364 13.2461C13.2727 13.2835 13.1009 13.2551 12.958 13.167Z" fill="url(#paint0_linear_32:412)"/>
<defs>
<linearGradient id="paint0_linear_32:412" x1="9.99999" y1="1.66699" x2="9.99999" y2="18.333" gradientUnits="userSpaceOnUse">
<stop stop-color="#FFBF00"/>
<stop offset="1" stop-color="#F2A50C"/>
</linearGradient>
</defs>
</svg>

<svg width="20" height="20" fill="none" xmlns="http://www.w3.org/2000/svg">
  <path d="M10 1.667c-4.583 0-8.333 3.75-8.333 8.333s3.75 8.333 8.333 8.333 8.333-3.75 8.333-8.333S14.583 1.667 10 1.667Zm2.958 11.5-3.4-2.092a.821.821 0 0 1-.4-.708V6.458a.642.642 0 0 1 .634-.625.63.63 0 0 1 .625.625v3.708l3.2 1.925c.3.184.4.575.216.876a.64.64 0 0 1-.875.2Z" fill="url(#a)"/>
  <defs>
    <linearGradient id="a" x1="10" y1="1.667" x2="10" y2="18.333" gradientUnits="userSpaceOnUse">
      <stop stop-color="#FFBF00"/>
      <stop offset="1" stop-color="#F2A50C"/>
    </linearGradient>
  </defs>
</svg>
